plasma/desktoptheme/Arc-Dark/icons/kleopatra.svg

<svg xmlns="http://www.w3.org/2000/svg" width="32" height="32" version="1">
 <g id="kleopatra">
  <rect style="opacity:0.001" width="32" height="32" x="0" y="0"/>
  <path style="fill:#d3dae3" d="M 10.400391 2 C 5.7467908 2 2 5.7467908 2 10.400391 L 2 21.599609 C 2 26.253209 5.7467908 30 10.400391 30 L 21.599609 30 C 26.253209 30 30 26.253209 30 21.599609 L 30 10.400391 C 30 5.7467908 26.253209 2 21.599609 2 L 10.400391 2 z M 14.009766 8 C 15.93937 8 17.624618 8.4432099 20.404297 9.6816406 C 22.999485 10.837873 23.42805 11.017578 25.152344 11.017578 C 25.92579 11.017578 26 11.076669 26 11.693359 L 26 12.134766 L 25.367188 12.132812 C 24.472277 12.129756 24.360487 12.172122 23.287109 11.896484 C 22.785224 11.767603 21.361268 11.390253 20.123047 10.935547 C 16.674948 9.6693151 14.727187 9.3375246 13.091797 9.4765625 C 12.032665 9.5666082 10.073467 10.092485 8.4804688 10.716797 C 6.1494967 11.630328 6.2442772 11.600549 6.1054688 11.460938 C 5.7119692 11.065171 6.4237525 10.379115 8.0878906 9.5449219 C 10.132355 8.5200791 12.121043 8 14.009766 8 z M 12.345703 12.005859 C 13.226448 11.973032 14.602557 12.08594 15.435547 12.304688 C 15.905265 12.428038 16.621191 12.741355 17.292969 13.001953 C 20.811069 14.366721 19.148205 13.886672 22.556641 13.976562 L 25 14.039062 L 25 15.453125 L 25 16.46875 L 22.892578 16.380859 C 21.766507 16.331579 22.893573 16.373906 22.214844 16.378906 C 21.009058 16.387616 20.935998 16.803203 18.962891 17.476562 C 17.852252 17.855592 16.287388 18.224182 15.855469 18.294922 C 14.353147 18.541019 14.002103 18.427289 14.578125 18.935547 C 15.412419 19.653714 17.111574 20.528343 18.632812 21.167969 C 20.962255 22.147416 22.959266 22.35107 23.304688 21.193359 C 23.41 20.840465 23.406052 20.689302 23.283203 20.4375 C 23.055239 19.970222 22.447293 19.66236 22.099609 19.75 C 21.395728 19.927397 21.27238 21.00461 21.917969 21.339844 C 22.535706 21.660617 23.073957 21.175092 22.876953 20.474609 C 22.81987 20.271624 22.828502 20.251697 22.919922 20.382812 C 23.125902 20.678235 23.053729 21.165764 22.763672 21.457031 C 22.068323 22.15527 21.021484 21.543977 21.021484 20.439453 C 21.021484 19.31408 22.201476 18.711678 23.265625 19.21875 C 23.844476 19.494574 24.081679 19.957859 24.082031 20.816406 C 24.082685 21.929835 23.001932 22.894531 22.146484 22.894531 C 19.926438 23.036657 17.62062 22.231602 15.574219 21.167969 C 15.105601 20.924401 14.56142 20.565349 13.810547 19.892578 L 13.068359 19.162109 C 13.063097 20.488042 12.980378 22.790573 12.253906 23.990234 C 11.783631 24.057179 11.781259 23.856389 11.578125 22.007812 C 11.523885 21.497045 11.304561 20.738394 11.609375 19.335938 L 11.609375 18.570312 L 10.070312 18.298828 C 9.098501 18.148407 7.8576451 18.001469 7.2246094 17.974609 C 6.1341302 17.928335 6.0714486 17.912797 6.0097656 17.666016 C 5.8727894 17.11799 7.2702299 14.945717 8.5078125 13.783203 C 9.3062309 13.033214 10.606146 12.293221 11.578125 12.089844 C 11.788866 12.045734 12.052123 12.016799 12.345703 12.005859 z M 16.337891 13.785156 C 16.297051 13.785155 16.263672 14.201729 16.263672 14.712891 C 16.263672 15.523862 16.224227 15.710171 15.955078 16.169922 C 15.785433 16.45971 15.481822 16.825646 15.28125 16.984375 L 14.916016 17.273438 L 15.253906 17.259766 C 16.621731 17.191575 17.461345 16.895281 18.876953 16.189453 C 19.571107 15.843344 20.140625 15.520396 20.140625 15.472656 C 20.140625 15.424914 20.018842 15.353646 19.871094 15.316406 C 19.723351 15.279168 18.835929 14.920774 17.898438 14.517578 C 16.960949 14.114385 16.378731 13.785156 16.337891 13.785156 z M 10.228516 14.027344 C 10.060384 14.059334 9.650997 14.385049 8.9746094 15.037109 C 8.0661866 15.912857 7.4462792 16.775892 7.5585938 16.888672 C 7.5899285 16.920137 8.4889452 17.033839 9.6445312 17.144531 L 11.818359 17.347656 L 11.353516 16.960938 C 10.645896 16.370706 10.399684 15.810609 10.396484 14.78125 C 10.394908 14.258182 10.396652 13.995364 10.228516 14.027344 z"/>
 </g>
 <g id="22-22-kleopatra" transform="translate(27,5)">
  <rect style="opacity:0.001" width="22" height="22" x="5" y="5"/>
  <path style="fill:#d3dae3" d="m 14.010006,7.9995466 c -1.888723,0 -3.877411,0.520079 -5.9218754,1.544922 -1.664138,0.8341934 -2.375921,1.5202504 -1.982422,1.9160164 0.138808,0.139611 0.04403,0.16939 2.375,-0.744141 1.5929984,-0.624312 3.5521964,-1.1501894 4.6113284,-1.2402344 1.63539,-0.139038 3.583151,0.192752 7.03125,1.4589844 1.238221,0.454706 2.662177,0.832056 3.164062,0.960937 1.073378,0.275638 1.185168,0.233272 2.080079,0.236328 l 0.632812,0.002 v -0.441407 c 0,-0.61669 -0.07421,-0.675781 -0.847656,-0.675781 -1.724294,0 -2.152859,-0.179705 -4.748047,-1.3359374 -2.779679,-1.238431 -4.464927,-1.681641 -6.394531,-1.681641 z m -1.664063,4.0058594 c -0.29358,0.01094 -0.556837,0.03988 -0.767578,0.08399 -0.971979,0.203377 -2.2718944,0.94337 -3.0703124,1.693359 -1.237583,1.162514 -2.635023,3.334787 -2.498047,3.882813 0.06168,0.246781 0.124364,0.262319 1.214844,0.308593 0.633035,0.02686 1.873891,0.173798 2.8457024,0.324219 l 1.539063,0.271484 v 0.765626 c -0.304814,1.402457 -0.08549,2.161107 -0.03125,2.671874 0.203134,1.848577 0.205506,2.049367 0.675781,1.982422 0.726472,-1.199661 0.809191,-3.502192 0.814453,-4.828125 l 0.742188,0.730469 c 0.750873,0.672771 1.295054,1.031823 1.763672,1.275391 2.046401,1.063633 4.352219,1.868688 6.572265,1.726562 0.855448,0 1.936201,-0.964696 1.935547,-2.078125 -3.52e-4,-0.858547 -0.237555,-1.321832 -0.816406,-1.597656 -1.064149,-0.507072 -2.244141,0.09533 -2.244141,1.220703 0,1.104524 1.046839,1.715817 1.742188,1.017578 0.290057,-0.291267 0.36223,-0.778797 0.15625,-1.074219 -0.09142,-0.131115 -0.100053,-0.111185 -0.04297,0.0918 0.197004,0.700483 -0.341247,1.186008 -0.958984,0.865235 -0.645589,-0.335234 -0.522241,-1.412447 0.18164,-1.589844 0.347684,-0.08764 0.95563,0.220222 1.183594,0.6875 0.122849,0.251802 0.126793,0.402965 0.02148,0.755859 -0.345422,1.157711 -2.342433,0.954057 -4.671876,-0.02539 -1.521238,-0.639626 -3.220393,-1.514255 -4.054687,-2.232422 -0.576022,-0.508258 -0.224978,-0.394528 1.277344,-0.640625 0.431919,-0.07074 1.996783,-0.439331 3.107422,-0.81836 1.973107,-0.673359 2.046167,-1.088946 3.251953,-1.097656 0.678729,-0.005 -0.448337,-0.04728 0.677734,0.002 l 2.107428,0.08784 v -1.015625 -1.414063 l -2.443359,-0.0625 c -3.408436,-0.08989 -1.745572,0.390159 -5.263672,-0.974609 -0.671778,-0.260598 -1.387704,-0.573915 -1.857422,-0.697265 -0.83299,-0.218748 -2.209099,-0.331656 -3.089844,-0.298829 z m 3.992188,1.779297 c 0.04084,0 0.623058,0.329229 1.560547,0.732422 0.937491,0.403196 1.824913,0.76159 1.972656,0.798828 0.147748,0.03724 0.269531,0.108508 0.269531,0.15625 0,0.04774 -0.569518,0.370688 -1.263672,0.716797 -1.415608,0.705828 -2.255222,1.002122 -3.623047,1.070313 l -0.33789,0.01367 0.365234,-0.289063 c 0.200572,-0.158729 0.504183,-0.524665 0.673828,-0.814453 0.269149,-0.459751 0.308594,-0.64606 0.308594,-1.457031 0,-0.511162 0.03338,-0.927736 0.07422,-0.927735 z m -6.109375,0.242188 c 0.168136,-0.03198 0.166392,0.230838 0.167968,0.753906 0.0032,1.029359 0.249412,1.589457 0.957032,2.179688 l 0.464843,0.386718 -2.1738284,-0.203125 c -1.155586,-0.110692 -2.054602,-0.224394 -2.085937,-0.255859 -0.112315,-0.11278 0.507593,-0.975815 1.416016,-1.851563 0.676387,-0.65206 1.0857744,-0.977775 1.2539064,-1.009765 z"/>
 </g>
</svg>

<?xml version="1.0" encoding="UTF-8"?>
<svg width="32" height="32" version="1" xmlns="http://www.w3.org/2000/svg">
 <g id="kleopatra">
  <rect width="32" height="32" opacity=".001"/>
  <path d="m10.4 2c-4.6536 0-8.4004 3.7468-8.4004 8.4004v11.199c0 4.6536 3.7468 8.4004 8.4004 8.4004h11.199c4.6536 0 8.4004-3.7468 8.4004-8.4004v-11.199c0-4.6536-3.7468-8.4004-8.4004-8.4004h-11.199zm3.6094 6c1.9296 0 3.6149 0.44321 6.3945 1.6816 2.5952 1.1562 3.0238 1.3359 4.748 1.3359 0.77345 0 0.84766 0.059091 0.84766 0.67578v0.44141l-0.63281-0.001954c-0.89491-0.003056-1.0067 0.03931-2.0801-0.23633-0.50188-0.12888-1.9258-0.50623-3.1641-0.96094-3.4481-1.2662-5.3959-1.598-7.0312-1.459-1.0591 0.090046-3.0183 0.61592-4.6113 1.2402-2.331 0.91353-2.2362 0.88375-2.375 0.74414-0.3935-0.39577 0.31828-1.0818 1.9824-1.916 2.0445-1.0248 4.0332-1.5449 5.9219-1.5449zm-1.6641 4.0059c0.88074-0.032827 2.2569 0.080081 3.0898 0.29883 0.46972 0.12335 1.1856 0.43667 1.8574 0.69726 3.5181 1.3648 1.8552 0.88472 5.2637 0.97461l2.4434 0.0625v1.4141 1.0156l-2.1074-0.087891c-1.1261-0.04928 9.95e-4 -0.006953-0.67773-0.001953-1.2058 0.00871-1.2788 0.4243-3.252 1.0977-1.1106 0.37903-2.6755 0.74762-3.1074 0.81836-1.5023 0.2461-1.8534 0.13237-1.2773 0.64062 0.83429 0.71817 2.5334 1.5928 4.0547 2.2324 2.3294 0.97945 4.3265 1.1831 4.6719 0.02539 0.10531-0.35289 0.10136-0.50406-0.021485-0.75586-0.22796-0.46728-0.83591-0.77514-1.1836-0.6875-0.70388 0.1774-0.82723 1.2546-0.18164 1.5898 0.61774 0.32077 1.156-0.16475 0.95898-0.86524-0.057083-0.20298-0.048451-0.22291 0.042969-0.091797 0.20598 0.29542 0.13381 0.78295-0.15625 1.0742-0.69535 0.69824-1.7422 0.086946-1.7422-1.0176 0-1.1254 1.18-1.7278 2.2441-1.2207 0.57885 0.27582 0.81605 0.73911 0.81641 1.5977 6.54e-4 1.1134-1.0801 2.0781-1.9355 2.0781-2.22 0.14213-4.5259-0.66293-6.5723-1.7266-0.46862-0.24357-1.0128-0.60262-1.7637-1.2754l-0.74219-0.73047c-0.005262 1.3259-0.087981 3.6285-0.81445 4.8281-0.47028 0.066945-0.47265-0.13384-0.67578-1.9824-0.05424-0.51077-0.27356-1.2694 0.03125-2.6719v-0.76563l-1.5391-0.27148c-0.97181-0.15042-2.2127-0.29736-2.8457-0.32422-1.0905-0.046274-1.1532-0.061812-1.2148-0.30859-0.13698-0.54803 1.2605-2.7203 2.498-3.8828 0.79842-0.74999 2.0983-1.49 3.0703-1.6934 0.21074-0.04411 0.474-0.073045 0.76758-0.083985zm3.9922 1.7793c-0.04084-1e-6 -0.074219 0.41657-0.074219 0.92774 0 0.81097-0.039445 0.99728-0.30859 1.457-0.16964 0.28979-0.47326 0.65572-0.67383 0.81445l-0.36523 0.28906 0.33789-0.013672c1.3678-0.068191 2.2074-0.36448 3.623-1.0703 0.69415-0.34611 1.2637-0.66906 1.2637-0.7168 0-0.047742-0.12178-0.11901-0.26953-0.15625-0.14774-0.037238-1.0352-0.39563-1.9727-0.79883-0.93749-0.40319-1.5197-0.73242-1.5605-0.73242zm-6.1094 0.24219c-0.16813 0.03199-0.57752 0.3577-1.2539 1.0098-0.90842 0.87575-1.5283 1.7388-1.416 1.8516 0.031335 0.031465 0.93035 0.14517 2.0859 0.25586l2.1738 0.20312-0.46484-0.38672c-0.70762-0.59023-0.95383-1.1503-0.95703-2.1797-0.001576-0.52307 1.68e-4 -0.78589-0.16797-0.75391z" fill="#d3dae3"/>
 </g>
 <g id="22-22-kleopatra" transform="translate(27,5)">
  <rect x="5" y="5" width="22" height="22" opacity=".001"/>
  <path d="m14.01 7.9995c-1.8887 0-3.8774 0.52008-5.9219 1.5449-1.6641 0.83419-2.3759 1.5203-1.9824 1.916 0.13881 0.13961 0.04403 0.16939 2.375-0.74414 1.593-0.62431 3.5522-1.1502 4.6113-1.2402 1.6354-0.13904 3.5832 0.19275 7.0312 1.459 1.2382 0.45471 2.6622 0.83206 3.1641 0.96094 1.0734 0.27564 1.1852 0.23327 2.0801 0.23633l0.63281 2e-3v-0.44141c0-0.61669-0.07421-0.67578-0.84766-0.67578-1.7243 0-2.1529-0.1797-4.748-1.3359-2.7797-1.2384-4.4649-1.6816-6.3945-1.6816zm-1.6641 4.0059c-0.29358 0.01094-0.55684 0.03988-0.76758 0.08399-0.97198 0.20338-2.2719 0.94337-3.0703 1.6934-1.2376 1.1625-2.635 3.3348-2.498 3.8828 0.06168 0.24678 0.12436 0.26232 1.2148 0.30859 0.63304 0.02686 1.8739 0.1738 2.8457 0.32422l1.5391 0.27148v0.76563c-0.30481 1.4025-0.08549 2.1611-0.03125 2.6719 0.20313 1.8486 0.20551 2.0494 0.67578 1.9824 0.72647-1.1997 0.80919-3.5022 0.81445-4.8281l0.74219 0.73047c0.75087 0.67277 1.2951 1.0318 1.7637 1.2754 2.0464 1.0636 4.3522 1.8687 6.5723 1.7266 0.85545 0 1.9362-0.9647 1.9355-2.0781-3.52e-4 -0.85855-0.23756-1.3218-0.81641-1.5977-1.0641-0.50707-2.2441 0.09533-2.2441 1.2207 0 1.1045 1.0468 1.7158 1.7422 1.0176 0.29006-0.29127 0.36223-0.7788 0.15625-1.0742-0.09142-0.13112-0.10005-0.11118-0.04297 0.0918 0.197 0.70048-0.34125 1.186-0.95898 0.86524-0.64559-0.33523-0.52224-1.4124 0.18164-1.5898 0.34768-0.08764 0.95563 0.22022 1.1836 0.6875 0.12285 0.2518 0.12679 0.40296 0.02148 0.75586-0.34542 1.1577-2.3424 0.95406-4.6719-0.02539-1.5212-0.63963-3.2204-1.5143-4.0547-2.2324-0.57602-0.50826-0.22498-0.39453 1.2773-0.64062 0.43192-0.07074 1.9968-0.43933 3.1074-0.81836 1.9731-0.67336 2.0462-1.0889 3.252-1.0977 0.67873-5e-3 -0.44834-0.04728 0.67773 2e-3l2.1074 0.08784v-2.4297l-2.4434-0.0625c-3.4084-0.08989-1.7456 0.39016-5.2637-0.97461-0.67178-0.2606-1.3877-0.57392-1.8574-0.69726-0.83299-0.21875-2.2091-0.33166-3.0898-0.29883zm3.9922 1.7793c0.04084 0 0.62306 0.32923 1.5605 0.73242 0.93749 0.4032 1.8249 0.76159 1.9727 0.79883 0.14775 0.03724 0.26953 0.10851 0.26953 0.15625 0 0.04774-0.56952 0.37069-1.2637 0.7168-1.4156 0.70583-2.2552 1.0021-3.623 1.0703l-0.33789 0.01367 0.36523-0.28906c0.20057-0.15873 0.50418-0.52466 0.67383-0.81445 0.26915-0.45975 0.30859-0.64606 0.30859-1.457 0-0.51116 0.03338-0.92774 0.07422-0.92774zm-6.1094 0.24219c0.16814-0.03198 0.16639 0.23084 0.16797 0.75391 0.0032 1.0294 0.24941 1.5895 0.95703 2.1797l0.46484 0.38672-2.1738-0.20312c-1.1556-0.11069-2.0546-0.22439-2.0859-0.25586-0.11232-0.11278 0.50759-0.97582 1.416-1.8516 0.67639-0.65206 1.0858-0.97778 1.2539-1.0098z" fill="#d3dae3"/>
 </g>
</svg>
